!!!!SEGMENT: pl-wnifc--6021-n--003_andrychowicz-j--polonez.krn
!!!cenid: 18xx:3914
!!!COM: Andrychowicz, J.
!!!COM-rismID: pe50044917
!!!CDT: <1803->1803
!!!CNT: Polish
!!!OTL: Polonez
!!!PDT:
!!!AGN:
!!!SMS-siglum: PL-Wnifc
!!!SMS-shelfmark: 6021/n
!!!SMS-variant:
!!!SMS-altvar:
!!!SMS-shelfwork: 003 W
!!!NIFC-rismSourceID: 1001134154
!!!NIFC-rismChildID: 1001134160
!!!NIFC-islandoraID: nifc:212586
!!!URL-pdf-islandora: https://repozytorium.nifc.pl/islandora/object/nifc%3A212586/datastream/PDF/view
!!!URL-scan: https://polish.musicsources.pl/pl/lokalizacje/galeria/druki-muzyczne/16848 @EN{Scan on Polish Music Sources Website} @PL{Skany w portalu Dziedzictwo Muzyki Polskiej w otwartym dostępie}
!!!IIIF:
!!!ONB-nifc: UWAGA: s. 8-9
!!!AIN: 2 piano
!!!key:
**kern	**kern	**dynam
*part2	*part1	*part1
*staff2	*staff1	*
*I"[Piano]	*I"[Piano]	*
*I'pf	*I'pf	*
*ICklav	*ICklav	*
*Ipiano	*Ipiano	*
*clefF4	*clefG2	*
*k[]	*k[]	*
*C:	*C:	*
*M3/4	*M3/4	*
=1	=1	=1
.	8qdd#X/	f
8C\L 8E	8ee\L	.
.	8qb/	.
8G\J	8cc\J	.
8C\L 8E	8g/L	.
8G\J	8g/J	.
!	!LO:TX:t=P:problem:przekreślony obiegnik	!
8D\L 8F	8gS</L	.
8G\J	16a/L	.
.	16b/JJ	.
=2	=2	=2
.	8qb/	.
8C\L 8E	8cc\L	.
.	8qff#X/	.
8G\	8gg\J	.
8C\ 8E	8.ccc\L	.
8G\	.	.
.	16gg\Jk	.
8D\ 8F	16ffn\LL	.
.	16dd\	.
8G\J	16b\	.
.	16g\JJ	.
=3	=3	=3
.	8qdd#X/	.
8C\L 8E	8ee\L	.
.	8qb/	.
8G\J	8cc\J	.
8C\L 8E	8g/L	.
8G\J	8g/J	.
!	!LO:TX:t=P:problem:przekreślony obiegnik	!
8D\L 8F	8gS</L	.
8G\J	16a/L	.
.	16b/JJ	.
=4	=4	=4
4C\ 4E	16cc\LL	.
.	16ee\	.
.	16cc\	.
.	(<16a\JJ	.
4D\	16f#X/LL	.
.	16d/	.
.	16c/	.
.	16A/JJ)	.
4GG/ 4BB 4D	4G/	.
*clefG2	*	*
=5	=5	=5
*tremolo	*	*
!	!LO:TX:b:i:t=dolce	!
(8d/L 8f	4.b\	p
8G/	.	.
8d/ 8f	.	.
8G/	(8dd\	.
8d/ 8f	16cc\LL	.
.	16b\	.
8G/J)	16a\	.
.	16g\JJ)	.
!!LO:LB:g=original	!	!
=6	=6	=6
(8c/L 8e	(8.cc\L	.
8G/	.	.
.	16ee\Jk	.
8c/ 8e	16ff#X\LL	.
.	16gg\	.
8G/	16aa\	.
.	16gg\JJ	.
8c/ 8e	16ffn\LL	.
.	16ee\)	.
8G/J)	16dd\	.
.	16cc\JJ	.
=7	=7	=7
(8d/L 8f	(16cc#X\LL	.
.	16dd\	.
8G/	16ee\	.
.	16dd\JJ	.
8d/ 8f	16cc#\LL	.
.	16dd\	.
8G/	16ee\	.
.	16dd\JJ	.
8d/ 8f	16ccn\LL	.
.	16b\)	.
8G/J)	16a\	.
.	16g\JJ	.
=8	=8	=8
(8c/L 8e	(16cc\LL	.
.	16b\	.
8G/	16cc\	.
.	16ee\JJ	.
8c/ 8e	16ff#X\LL	<
.	16gg\)	.
8G/	16aa\	.
.	16gg\JJ	.
8c/ 8e	16ffn\LL	.
.	16ee\	.
8G/J)	16dd\	.
.	16cc\JJ	[[
*clefF4	*	*
=9	=9	=9
4F\ 4A	(8aa\L	f
.	16aa\L	.
.	16gg\JJ	.
4F\ 4A	8ff\L)	.
.	16ff\L	.
.	16ee\JJ	.
4F#X\ 4A	(8dd\L	.
.	16dd\L	.
.	16cc\JJ	.
=10	=10	=10
4G\	16b\LL)	.
.	(16cc\	.
.	16dd\	.
.	16ee\JJ	.
4D/	16dd\LL	.
.	16cc\	.
.	16b\)	.
.	16a\JJ	.
4GG/	4g/	.
*clefG2	*	*
=11	=11	=11
.	8qff#X/	.
8cc/L 8ee	4.gg\	.
8g/	.	.
8cc/ 8ee	.	.
!	!LO:TX:t=P:problem:przekreślony obiegnik	!
8g/	8cccsS\	.
8cc/ 8ee	8eee\L	.
8g/J	8ccc\J	.
!!LO:LB:g=original	!	!
=12	=12	=12
.	8qccc#X/	.
8b/L 8ff	8ddd\L	.
.	8qccc#/	.
8g/	8ddd\J	.
8dd/ 8ff	4.bb\	.
8g/	.	.
8dd/ 8ff	.	.
8g/J	8gg\	.
=13	=13	=13
(8cc/L 8ee	16r	.
.	(16ff#X\LL	.
8g/	16gg\	.
.	16gg#X\JJ)	.
8cc/ 8ee	16gg#\LL	.
.	16bb-X\	.
8g/	16bb-\	.
.	16ccc\JJ	.
8cc/ 8ee	16ccc#X\LL	.
.	16ddd\	.
8g/J)	16ddd#X\	.
.	16eee\JJ	.
=14	=14	=14
8b/L 8dd	8.fff\L	.
8g/	.	.
.	16ddd\Jk	.
8dd/ 8ff	8ccc\L	.
8g/	8bb\J	.
8dd/ 8ff	8aa\L	.
8g/J	8gg\J	.
=15	=15	=15
16c/LL	4.gg\	.
16g/	.	.
16e/	.	.
16g/JJ	.	.
*rep	*	*
16c/LL	.	.
16g/	.	.
!	!LO:TX:t=P:problem:przekreślony obiegnik	!
16e/	8cccsS\	.
16g/JJ	.	.
*Xrep	*	*
*rep	*	*
16c/LL	8eee\L	.
16g/	.	.
16e/	8ccc\J	.
16g/JJ	.	.
*Xrep	*	*
=16	=16	=16
(16B/LL	(16ccc#X\LL	.
16g/	16ddd\	.
16d/	16fff\	.
16g/JJ	16ddd\JJ	.
16d/LL)	4.bb\)	.
16g/	.	.
16f/	.	.
16g/JJ	.	.
*rep	*	*
16d/LL	.	.
16g/	.	.
16f/	8gg\	.
16g/JJ	.	.
*Xrep	*	*
=17	=17	=17
16c/LL	16r	.
16g/	16ff#X\LL	.
16e/	(16gg\	.
16g/JJ	16gg#X\JJ	.
*rep	*	*
16c/LL	16aa\LL	.
16g/	16bb-X\	.
16e/	16bbn\	.
16g/JJ	16ccc\JJ	.
*Xrep	*	*
*rep	*	*
16c/LL	16ccc#X\LL	.
16g/	16ddd\)	.
16e/	16ddd#X\	.
16g/JJ	16eee\JJ	.
*Xrep	*	*
!!LO:LB:g=original	!	!
=18	=18	=18
(16d/LL	16fff\LL	.
16g/	16eee\	.
16f/	16fff\	.
16g/JJ)	16ddd\JJ	.
*rep	*	*
16d/LL	8ccc\L	.
16g/	.	.
16f/	8bb\	.
16g/JJ	.	.
*Xrep	*	*
*rep	*	*
16d/LL	8aa\	.
16g/	.	.
16f/	8gg\J	.
16g/JJ	.	.
*Xrep	*	*
=19	=19	=19
*Xtremolo	*	*
8c/L 8e 8g	8ccc\L	.
8c/J	16ee\L	.
.	16ccc\JJ	.
8d/L	16ff\LL	.
.	16ccc\	.
8d#X/J	(16ff#X\	<
.	16ccc\JJ	.
8e/L	16gg\LL	.
.	16ccc\	.
8e/J	16gg#X\	.
.	16ccc\JJ)	[[
=20	=20	=20
8f/L	(16aa\LL	.
.	16gg#X\	.
8f/	16aa\	.
.	16gg#\JJ	.
8f/	4.aa\)	.
8f/	.	.
8c#X/ 8a	.	.
8c#/J 8a	8ggn\	.
=21	=21	=21
8d/L 8a	(16gg\LL	.
.	16ff\J)	.
!	!LO:TX:t=P:problem:przekreślony obiegnik	!
8d/J 8a	8ffsS\J	.
8G/L	(16bb\LL 16ddd	.
.	16aa\ 16ccc	.
8g/J	16gg\ 16bb	.
.	16ff\JJ) 16aa	.
8G/L	16ee\LL 16gg	.
.	16dd\ 16ff	.
8g/J	16cc\ 16ee	.
.	16b\JJ 16dd	.
=22	=22	=22
8c/L 8g	16ee\LL	.
.	(16gg\	.
8G/J 8g	16b\	.
.	16dd\JJ	.
8r	(4b\) 4dd	.
8G/ 8f	.	.
4c/ 4e	8cc\)	.
.	8r	.
*clefF4	*	*
=23	=23	=23
8GG/L	4.g\ 4.b	.
8G\	.	.
8G\	.	.
8G\	(8a\ 8cc	.
8G\	8a#X\L 8cc#X	.
8G\J	8b\J) 8dd	.
!!LO:LB:g=original	!	!
=24	=24	=24
*tremolo	*	*
8G\L	(16cc\LL 16ee	.
.	16b\ 16dd	.
8G\	16a#X\ 16cc#X	.
.	16b\JJ 16dd	.
8G\	4.b\) 4.dd	.
8G\	.	.
8G\	.	.
8G\J	8b\ 8gg	.
*clefG2	*	*
=25	=25	=25
*^	*	*
*Xtremolo	*	*	*
8a/L 8cc	[2.d\	16ff#X\LL	.
.	.	16dd\	.
8a/J 8cc	.	16aa\	.
.	.	16dd\JJ	.
8g/L 8b	.	16gg\LL	.
.	.	16dd\	.
8g/J 8b	.	16bb\	.
.	.	16dd\JJ	.
8f#X/L 8a	.	16aa\LL	.
.	.	16dd\	.
8f#/J 8a	.	16ccc\	.
.	.	16dd\JJ	.
=26	=26	=26	=26
8g/L 8b	4d\]	8.ddd\L	.
8g/J 8b	.	.	.
.	.	16bb\Jk	.
8f#X/L 8a	4d\	(16ccc\LL	.
.	.	16bb\	.
8f#/J 8a	.	16ccc\	.
.	.	16aa\JJ)	.
4g/ 4b	4ryy	4gg\	.
*v	*v	*	*
*clefF4	*	*
=27	=27	=27
!LO:TX:a:t=P:problem:mixed beam	!	!
8C/L	4.e/ 4.g	.
8c\	.	.
8c\	.	.
8c\	8e/ 8g#X	.
8c\	(8f/L 8a	.
8c\J	8gn/J 8b	.
=28	=28	=28
*tremolo	*	*
8c\L	(16b/LL) 16dd	.
.	16a/ 16cc	.
8c\	16g/ 16b	.
.	16f/JJ) 16a	.
8c\	4.e/ 4.g	.
8c\	.	.
8c\	.	.
8c\J	8e/ 8cc	.
=29	=29	=29
8G\L 8d 8fn	(16b/LL	.
.	16g/	.
8G\ 8d 8f	16f#X/	.
.	16g/JJ)	.
8G\ 8d 8f	16b\LL	.
.	16cc\	.
8G\ 8d 8f	16dd\	.
.	16ee\JJ	.
8G\ 8d 8f	8.ff\L	.
8G\J 8d 8f	.	.
.	16b\Jk	.
=30	=30	=30
8G\L 8c 8e	(16cc\LL	.
.	16g\	.
8G\ 8c 8e	16f\	.
.	16g\JJ	.
8G\ 8c 8e	16cc\LL)	.
.	16dd\	.
8G\ 8c 8e	16ee\	.
.	16ff\JJ	.
8G\ 8c 8e	8.gg\L	.
8G\J 8c 8e	.	.
.	16cc\Jk	.
!!LO:PB:g=original	!	!
=31	=31	=31
8F\L 8f	8a\L 8aa	.
8E\ 8e	8g\ 8gg#X	.
8F\ 8f	8a\ 8aa	.
8E\ 8e	8g\ 8ggn	.
8.D\ 8.d	8.f\ 8.ff	.
16C\Jk 16c#X	16e\Jk 16ee	.
=32	=32	=32
8D\L 8d	8f\L 8ff	.
8C\ 8c	8e\ 8ee	.
8D\ 8d	8f\ 8ff	.
8C\ 8c	8e\ 8ee	.
8.BB\ 8.B	8.d\ 8.dd	.
16AA\Jk 16A#X	16c\Jk 16cc#X	.
=33	=33	=33
8BB\L 8B	8d\L 8dd	.
8AA\ 8A#X	8c\ 8cc#X	.
8BB\ 8B	8d\ 8dd	.
8AA\ 8An	8c\ 8ccn	.
8.GG\ 8.G	8.B\ 8.b	.
16FF\Jk 16F#X	16A\Jk 16a	.
=34	=34	=34
!	!LO:TX:a:t=P:problem:mixed beam	!
4GG\ 4G	8g/L	.
.	(16gg\L	.
.	16aa\JJ	.
4r	16bb\LL	.
!	!LO:TX:b:i:t=Dal Segno	!
.	16ccc\	.
.	16ddd\	.
.	16eee\JJ)	.
4r	4fff\	.
=35||	=35||	=35||
*clefF4	*clefG2	*
*k[b-e-a-]	*k[b-e-a-]	*
*M3/4	*M3/4	*
!	!LO:TX:a:B:t=Trio	!
!	!LO:TX:t=P:problem:przekreślony obiegnik	!
4C\ 4c	8ccsS\L	p
.	8ee-\J	.
4E-\ 4e-	8r	.
!	!LO:TX:t=P:problem:przekreślony obiegnik	!
.	8gS/	.
4D\ 4d	(8g/L	.
.	16an/L	.
.	16bn/JJ)	.
=36	=36	=36
!LO:TX:a:t=P:problem:mixed beam	!	!
16C/LL	8cc/L	.
16c\	.	.
16Bn\	8e-/J 8g	.
16c\JJ	.	.
!LO:TX:a:t=P:problem:mixed beam	!	!
16FF/LL	(8f/L 8a-	.
16F\	.	.
16En\	8d/J) 8f	.
16F\JJ	.	.
8GG/L	(8c/L 8e-	.
8G\J	8Bn/J) 8d	.
=37	=37	=37
.	8qB/	.
*Xtremolo	*	*
8E-\L	8c/L	.
8E-\J	8G/J	.
.	8qc#X/	.
8BBn/L	8d/L	.
8BB/J	8G/J	.
.	8qd/	.
8C/L	8e-/L	.
8C/J	8G/J	.
=38	=38	=38
4G\	8.Bn/L	.
.	16d/Jk	.
.	8qa-/	.
4BBn/	16g/LL	.
.	16f/	.
.	16g/	.
.	16a-/JJ	.
4GG/	16g/LL	.
.	16fn/	.
.	16e-/	.
.	16d/JJ	.
=39	=39	=39
4C\ 4E- 4G	(16cc\LL	.
.	16ccc\	fp
.	16gg\	.
.	16ee-\JJ	.
4E-\ 4G	8cc\L)	.
.	8ccT\J	.
4D\ 4F 4G	8bn\L	.
.	8g\J	.
!!LO:LB:g=original	!	!
=40	=40	=40
4C\ 4E- 4G	16cc\LL	.
.	16ccc\	f
.	16gg\	.
.	16ee-\JJ	p
4E-\ 4G	8cc\L	.
!	!LO:TX:t=P:problem:przekreślony obiegnik	!
.	8ccsS\J	.
4D\ 4F 4G	8bn\L	.
.	8g\J	.
=41	=41	=41
4E-\ 4G	16.cc/LL	.
.	32g/JK	.
!	!LO:TX:t=P:problem:przekreślony obiegnik	!
.	8gsS</J	.
4F\	8r	.
.	(8a-/	.
4F\	8f/L	.
.	8d/J)	.
=42	=42	=42
8G\L	(16e-/LL	.
.	16g/	.
8GG/J	16Bn/	.
.	16d/JJ)	.
8r	(4B/ 4d	.
8GG\ 8G	.	.
4C\ 4E-	8c/)	.
.	8r	.
=43	=43	=43
*tremolo	*	*
(8G\L 8d	(16g/LL	.
.	16a-/	.
8f\	16bn/	.
.	16cc/JJ)	.
8G\ 8d	8dd\L	.
8f\	8dd\J	.
8G\ 8d	16cc/LL	.
.	16b/	.
8f\J)	16a-/	.
.	16g/JJ	.
=44	=44	=44
(8G\L 8c 8e-	8ee-\L	.
8g\	8ee-\J	.
8G\ 8c 8e-	4.cc\	.
8g\	.	.
8G\ 8c 8e-	.	.
8g\J)	8gg\	.
*clefG2	*	*
=45	=45	=45
!	!LO:TX:t=P:problem:łuk w t. 45, brak w kolejnym	!
16d/LL	2.dd\ 2.ff#X 2.aan 2.ccc	.
16cc/	.	.
16en/	.	.
16cc/JJ	.	.
16f#X/LL	.	.
16cc/	.	.
16g/	.	.
16cc/JJ	.	.
16g#X/LL	.	.
16cc/	.	.
16an/	.	.
16cc/JJ	.	.
!!LO:LB:g=original	!	!
=46	=46	=46
8g/L 8dd	16bbn\LL	.
.	16ddd\	.
8f#X/J 8dd	16ccc\	.
.	16aa-\JJ	.
8g/L 8dd	16bb\LL	.
.	16ddd\	.
8f#X/J 8dd	16ccc\	.
.	16aa-\JJ	.
4g/ 4dd	4gg\	.
*clefF4	*	*
=47	=47	=47
8G\L 8d	16g/LL	.
.	16an/	.
8f\	16bn/	.
.	16cc/JJ	.
8G\ 8d	8dd\L	.
!	!LO:TX:t=P:problem:przekreślony obiegnik	!
8f\	8ddsS\J	.
8G\ 8d	16cc\LL	.
.	16b\	.
8f\J	16a\	.
.	16g\JJ	.
=48	=48	=48
8G\L 8c 8e	16cc\LL	.
.	16dd\	.
8g\	16ee\	.
.	16ff\JJ	.
8G\ 8c 8e	8gg\L	.
8g\	8gg\J	.
8G\ 8c 8e	16ff\LL	.
.	16ee\	.
8g\J	16dd\	.
.	16cc\JJ	.
*clefG2	*	*
=49	=49	=49
!LO:TX:t=P:problem:łuk w t. 49, brak w kolejnym	!	!
2.d/ 2.f#X 2.an 2.cc	16r	.
.	16ff#X\LL	.
.	16gg\	.
.	16gg#X\JJ	.
.	16aan\LL	.
.	16bb-\	.
.	16bbn\	.
.	16ccc\JJ	.
.	16ccc#X\LL	.
.	16ddd\	.
.	16cccn\	.
.	16aa\JJ	.
=50	=50	=50
8d/L 8g 8bn	(16bbn\LL	.
.	16gg\	.
8d/J 8cc	16aa\	.
.	16ff#X\JJ)	.
4g/ 4b	4gg\	.
4r	4r	.
=51	=51	=51
*clefF4	*	*
!	!LO:TX:t=P:problem:przekreślony obiegnik	!
4C\ 4c	8ccsS\L	.
.	8ee-\J	.
4E-\ 4e-	8r	.
.	8g/	.
!	!LO:TX:t=P:problem:przekreślony obiegnik	!
4D\ 4d	8gsS/L	.
.	16an/L	.
.	16b-/JJ	.
!!LO:LB:g=original	!	!
=52	=52	=52
!LO:TX:a:t=P:problem:mixed beam	!	!
16C/LL	8cc/L	.
16c\	.	.
16Bn\	8e-/J 8g	.
16c\JJ	.	.
!LO:TX:a:t=P:problem:mixed beam	!	!
16FF/LL	8f/L 8a-	.
16F\	.	.
16En\	8d/J 8f	.
16F\JJ	.	.
8GG/L	8c/L 8e-	.
8G\J	8Bn/J 8d	.
=53	=53	=53
*Xtremolo	*	*
.	8qB-/	.
8E-\L	8c/L	.
8E-\J	8G/J	.
.	8qc#X/	.
8BBn/L	8d/L	.
8BB/J	8G/J	.
.	8qd/	.
8C/L	8e-/L	.
8C/J	8G/J	.
=54	=54	=54
4G\	8.Bn/L	.
.	16d/Jk	.
4BBn/	16g/LL	.
.	16f#X/	.
.	16g/	.
.	16a-/JJ	.
4GG/	16g/LL	.
.	16fn/	.
.	16e-/	.
.	16d/JJ	.
=55	=55	=55
4C\ 4E- 4G	16cc\LL	rf
.	(16ccc\	.
.	16gg\	.
.	16ee-\JJ	.
4E-\ 4G	8cc\L)	.
!	!LO:TX:t=P:problem:przekreślony obiegnik	!
.	8ccsS\J	.
4D\ 4F 4G	8bn\L	.
.	8g\J	.
=56	=56	=56
4C\ 4E- 4G	16cc\LL	.
.	16ccc\	.
.	16gg\	.
.	16ee-\JJ	.
4E-\ 4G	8cc\L	.
!	!LO:TX:t=P:problem:przekreślony obiegnik	!
.	8ccsS\J	.
4D\ 4F 4G	8bn\L	.
.	8g\J	.
=57	=57	=57
4E-\ 4G	16.cc/LL	.
.	32g/JK	.
!	!LO:TX:t=P:problem:przekreślony obiegnik	!
.	8gsS</J	.
4F\	8r	.
.	(8a-/L	.
4F\	8f/	.
.	8d/J)	.
=58	=58	=58
8G\L	(16e-/LL	.
.	16g/	.
8GG/J	16Bn/	.
!	!LO:TX:b:i:t=Polo&colon; da ca-po	!
.	16d/JJ)	.
8r	(4B/ 4d	.
8GG\ 8F	.	.
4C\ 4E-	8c/)	.
.	8r	.
==	==	==
*-	*-	*-
!!!system-decoration: {(s1,s2)}
!!!RDF**kern: > = above
!!!RDF**kern: < = below
!!!ENC: Berenika Jozajtis
!!!END: 2022-07-26
!!!ENC: Jan Barakat
!!!END: 2022-08-23
!!!YEC: Copyright 2022 Narodowy Instytut Fryderyka Chopina (https://polishscores.org)
!!!YEM: License CC-BY-4.0 (https://creativecommons.org/licenses/by/4.0)
